packages/ffe-icons/icons/filled/md/grid_on.svg

<svg xmlns="http://www.w3.org/2000/svg" height="24" viewBox="0 -960 960 960" width="24"><path d="M212.309-140.001h114.692v-186.616h-187v114.308q0 29.827 21.241 51.067 21.24 21.241 51.067 21.241Zm174.691 0h186v-186.616H387v186.616Zm245.999 0h114.692q29.827 0 51.067-21.241 21.241-21.24 21.241-51.067v-114.308h-187v186.616ZM140.001-386.615h187v-186.77h-187v186.77Zm246.999 0h186v-186.77H387v186.77Zm245.999 0h187v-186.77h-187v186.77ZM140.001-633.383h187v-186.616H212.309q-29.827 0-51.067 21.241-21.241 21.24-21.241 51.067v114.308Zm246.999 0h186v-186.616H387v186.616Zm245.999 0h187v-114.308q0-29.827-21.241-51.067-21.24-21.241-51.067-21.241H632.999v186.616Z"/></svg>

<svg xmlns="http://www.w3.org/2000/svg" height="24" viewBox="0 -960 960 960" width="24"><path d="M212.31-140H327v-186.62H140v114.31q0 29.83 21.24 51.07Q182.48-140 212.31-140ZM387-140h186v-186.62H387V-140Zm246 0h114.69q29.83 0 51.07-21.24Q820-182.48 820-212.31v-114.31H633V-140ZM140-386.62h187v-186.76H140v186.76Zm247 0h186v-186.76H387v186.76Zm246 0h187v-186.76H633v186.76ZM140-633.38h187V-820H212.31q-29.83 0-51.07 21.24Q140-777.52 140-747.69v114.31Zm247 0h186V-820H387v186.62Zm246 0h187v-114.31q0-29.83-21.24-51.07Q777.52-820 747.69-820H633v186.62Z"/></svg>
